X:1
T: The Sign Post
C:
R:Jig
Q:180
K:A
M:6/8
L:1/16
|:A2e2e2 e2f2=g2|B2=G2B2 d2c2B2|A2e2e2 e2f2g2|a2e2e2 f2e2e2|
A2e2e2 e2f2=g2|B2=G2B2 d2c2B2|A2e2e2 d2B2e2|c2A2A2 A6:|
|:a2e2c2 A2c2e2|a2g2a2 e4f2|=g2d2B2 =G2B2d2|=g2f2g2 e4^g2|
a2e2c2 A2c2e2|a2g2a2 e2f2d2|c2e2e2 d2B2d2|c2A2A2 A6:|
